src/assets/icons/pul-icon-data-file.svg

<!-- Generated by IcoMoon.io -->
<svg version="1.1" xmlns="http://www.w3.org/2000/svg" width="16" height="16" viewBox="0 0 16 16">
<title>data-file</title>
<path d="M13.974 4.205c-0.017-0.041-0.041-0.077-0.072-0.108l-3.999-3.999c-0.031-0.030-0.067-0.055-0.108-0.071-0.040-0.017-0.083-0.027-0.128-0.027h-7.333c-0.184 0-0.333 0.149-0.333 0.333v15.333c0 0.184 0.149 0.333 0.333 0.333h11.333c0.184 0 0.333-0.149 0.333-0.333v-11.333c0-0.045-0.009-0.088-0.026-0.128zM10 1.138l2.862 2.862h-2.862v-2.862zM2.667 15.333v-14.667h6.667v3.667c0 0.184 0.149 0.333 0.333 0.333h3.667v10.667h-10.667z"></path>
</svg>

<svg xmlns="http://www.w3.org/2000/svg" viewBox="0 0 16 16">
    <path d="M13.974 4.205a.33.33 0 0 0-.072-.108L9.903.098a.327.327 0 0 0-.108-.071A.326.326 0 0 0 9.667 0H2.334a.333.333 0 0 0-.333.333v15.333c0 .184.149.333.333.333h11.333a.333.333 0 0 0 .333-.333V4.333a.325.325 0 0 0-.026-.128zM10 1.138L12.862 4H10V1.138zM2.667 15.333V.666h6.667v3.667c0 .184.149.333.333.333h3.667v10.667H2.667z"/>
</svg>
